X:1
T: Geordie Jack
C:Carl Volti
R:Reel
Q: 232
K:Eb
M:4/4
L:1/8
|:e2 ge c2 ec|Bc BA GF E2|B,E DE CF =EF|DB =AB GE GB|
e2 ge c2 ec|Bc BA GF E2|B,E DE CF =EF|DA FD E2 B2|
ed ef ge BG|BA FD B,D FA|GB ef ge BG|BA FD E2 B2|
ed ef ge BG|BA FD B,D FA|GE DE CF =EF|DA FD E2 E2:|
